X: 1
T: Sir Ronald McDonald's
R: reel
M: 4/4
L: 1/8
K: Gmin
G2 dccd- dg|fdcA FGAF|FGBG Bddf|1 AFcA cdFG:|2 AFcA G3f||
g>agf dfga|fdcA FcAf|g>agf dfga|fdcA G2 B/c/d/f/|
g>agf dfga|fc d/c/B/A/ cdfa|ga fg df cf|AFcA G4||

